X:1
T:Wilt Thou Blameless Be?
T:Wilt Thou Blameless Be?
T:Keith L. Brooks
T:Keith L. Brooks, 1920
T:Public Domain Courtesy of the Cyber Hymnal™
C:Keith L. Brooks
Z:Public Domain
Z:Courtesy of the Cyber Hymnal™
%%score ( 1 2 ) ( 3 4 )
L:1/8
Q:1/4=105
M:9/8
K:D
V:1 treble 
V:2 treble 
V:3 bass 
V:4 bass 
V:1
 [DF][DF][DF] | [^Ec]3 [EB]3 [FB]2 F | [FA]6 [GA][GA][GA] | [CE]3 [CF]3 [CA]2 [CG] | F6 | %5
w: 1.~Have you yet|sought a soul to|win, Out of the|paths of death and|sin—|
w: 2.~Have you to|loved ones prov- en|true? Could they in|judg- ment point to|you?|
w: 3.~Are you im-|prov- ing ev- ery|day, Tell- ing to|sin- ners Je- sus’|way—|
w: 4.~Do you for-|get the love of|Christ, How that for|thee He sac- ri-|ficed?|
 [Dd][Fd][Fd] | [Fc]3 F3 [FB]2 [EB] | A6 [CA][CA][CA] | [DA]3 [DA]3 [DB]2 [DA] | %9
w: Liv- ing each|day in Je- sus’|will, Ear- nest- ly|warn- ing friends of|
w: Haste, then, for|night may soon come|on, Find- ing your|dear ones ev- er|
w: Just by an|act, a word, a|smile, Show- ing out|Je- sus all the|
w: Go now, I|pray thee, be for|Him Mes- sen- gers|tire- less, souls to|
 ([CA]3 [Gc]3) z3 ||"^Refrain" [Fd]3 [DF]3 [Fc]"^ad lib."[FB]F | ([FA]6 [EG]3) | %12
w: ill. *|||
w: gone. *|Will thy soul blame- less|be— *|
w: while? *|||
w: win. *|||
 [DF]3 [DF]3 [DB]"^rit."[CE][CF] | ([B,D-]3 [A,D]4) |] %14
w: ||
w: None lost point- ing to|thee? *|
w: ||
w: ||
V:2
 x3 | x8 F | x9 | x9 | (D3 E3) | x3 | x3 F3 x3 | (F3 D3) x3 | x9 | x9 || x8 F | x9 | x9 | x7 |] %14
V:3
 [D,A,][D,A,][D,A,] | [D,^G,]3 [D,G,]3 [D,A,]2 [D,A,] | (A,3 B,3) [E,C][E,C][E,C] | %3
 [A,,G,]3 A,3 [A,,E,]2 [A,,A,] | ([D,A,]3 [C,^A,]3) | [B,,B,][B,,B,][B,D] | %6
 [A,C]3 [A,C]3 [G,B,]2 [G,C] | ([A,D]3 [F,A,]3) [A,,A,][A,,E,][A,,E,] | %8
 [A,,=F,]3 [A,,F,]3 [A,,^F,]2 [A,,F,] | ([A,,G,]3 G,3) z3 || [D,A,]3 [D,A,]3 [D,E][D,D][D,B,] | %11
 ([^D,^B,]6 [E,=B,]3) | [A,,A,]3 [A,,A,]3 [A,,F,][A,,G,][A,,A,] | ([D,-G,]3 [D,F,]4) |] %14
V:4
 x3 | x9 | D,6 x3 | x9 | x6 | x3 | x9 | x9 | x9 | x3 G,3 x3 || x9 | x9 | x9 | x7 |] %14

